X:1
T:The Day of Resurrection!
T:Text: John of Damscus, 8th c.; tr. John M. Neale (1818-1816) Tune: Henry T. Smart (1813-1879)
T:76 76D LANCASHIRE www.hymnary.org/text/the_day_of_resurrection_earth_tell_it
T:The Day of Resurrection!
T:This hymn is in the public domain.  You may freely use this score for personal and congregational worship.  If you reproduce the score, please credit Hymnary.org as the source. 
T:This hymn is in the public domain.  You may freely use this score for personal and congregational worship.  If you reproduce the score, please credit Hymnary.org as the source. 
Z:This hymn is in the public domain.  You may freely use this score for personal and congregational worship.  If you reproduce the score, please credit Hymnary.org as the source.
%%score ( 1 2 ) ( 3 4 )
L:1/8
M:4/4
K:C
V:1 treble nm="Piano" snm="Pno."
V:2 treble 
V:3 bass nm="Piano" snm="Pno."
V:4 bass 
V:1
 [CG]2 | [CG]2 [CE]2 [CF]2 [CA]2 | [CG]4 [CE]2 [Ec]2 | [Fc]2 [CF]2 [CG]2 [CA]2 | [B,D]6 | [B,G]2 | %6
w: 3~Now|let the heavens be|joy- ful! Let|earth its song be-|gin!|The|
w: 1~The|day of re- sur-|rec- tion! Earth,|tell it out a-|broad;|the|
w: 2~Our|hearts be pure from|e- vil, that|we may see a-|right|the|
 [CG]2 [CE]2 [CF]2 [CA]2 | [CG]4 [CE]2 [CE]2 | [B,D]2 [DB]2 [CA]2 [C^F]2 | [B,G]6 | [B,G]2 | %11
w: world re- sound in|tri- umph, and|all that is there-|in;|let|
w: Pas- so- ver of|glad- ness, the|Pas- so- ver of|God.|From|
w: Lord in rays e-|ter- nal of|re- sur- rec- tion|light;|and,|
 [CG]2 [CE]2 C2 [Ec]2 | (c3 A) [CF]2 [^CA]2 | [DA]2 [D^F]2 D2 [Fd]2 | (d4 B2) | [DG]2 | %16
w: all things seen and|un- * seen their|notes of glad- ness|blend; _|for|
w: death to life e-|ter- * nal, from|sin's do- mi- nion|free, _|our|
w: lis- tening to his|ac- * cents, may|hear, so calm and|plain, _|his|
 [Cc]2 [Cc]2 [Dc]2 [Ec]2 | [Fc]4 [C=B]2 [CA]2 | [CG]2 [CE]2 [G,D]2 [G,B,]2 | [G,C]6 |] %20
w: Christ the Lord has|ri- sen, our|Joy that has no|end.|
w: Christ has brought us|o- ver with|hymns of vic- to-|ry.|
w: own "all hail" and,|hear- ing, may|raise the vic- tor|strain.|
V:2
 x2 | x8 | x8 | x8 | x6 | x2 | x8 | x8 | x8 | x6 | x2 | x4 C2 x2 | F4 x4 | x4 D2 x2 | G6 | x2 | %16
 x8 | x8 | x8 | x6 |] %20
V:3
 [C,E,]2 | [C,E,]2 [C,G,]2 [C,A,]2 [C,F,]2 | [C,E,]4 [C,G,]2 [_B,,G,]2 | %3
 [A,,F,]2 [A,,C]2 [G,,=B,]2 [F,,A,]2 | [G,,G,]6 | [G,,F,]2 | [C,E,]2 [C,_B,]2 [C,A,]2 [C,F,]2 | %7
 [C,E,]4 [C,G,]2 [C,G,]2 | [D,G,]2 [D,G,]2 [D,^F,]2 [D,A,]2 | [G,,G,]6 | [G,,F,]2 | %11
 [C,E,]2 [G,_B,]2 [E,B,]2 [C,B,]2 | (A,3 C) [F,A,]2 [E,G,]2 | [D,^F,]2 [A,C]2 [F,C]2 [D,C]2 | %14
 (([G,,B,]4 [G,D]2)) | [F,B,]2 | [E,C]2 [E,G,]2 [F,A,]2 [G,_B,]2 | [A,C]4 [F,C]2 [F,,F,]2 | %18
 [G,,E,]2 [G,,G,]2 [G,,F,]2 [G,,D,]2 | [C,E,]6 |] %20
V:4
 x2 | x8 | x8 | x8 | x6 | x2 | x8 | x8 | x8 | x6 | x2 | x8 | F,,4 x4 | x8 | x6 | x2 | x8 | x8 | %18
 x8 | x6 |] %20

